!!!COM: Fe/licien David
!!!CNT: Francais
!!!TXO: Francais
!!!OTL: Formosa
!!!LYR: Tyrte/e Tastet
!!!ENC: Jacob Pegg
!!!YOR: Romantic French Song 1830-1870, David Tunley, ed., New York: Garland Publishing, Inc., 1995
!!!ODT: 1847/
!!NB: Vocal melody and text only encoded.
!!NB: Only first strophe encoded.
**kern	**silbe
*clef G2	*
*k[b-e-]	*
*M3/4	*
=1	=1
2.r	.
=2	=2
4r	.
4r	.
{4dd	{Je
=3	=3
2ff	trem-
8ee-	-ble a\
8dd	te
=4	=4
(8cc	voir
8ee-)	|
4g	si
4a	char-
=5	=5
(8b-	-man-
8dd)	|
2f}	-te,}
=6	=6
2.r	.
=7	=7
{4b-	{Les
8a	yeux
8g	par-
8.a	-tout
16b-	ra-
=8	=8
8.b-	-vis
16f	de
2f	toi,
=9	=9
4b-	Les
8a	coeurs
8g	par-
8a	-tout
8ff	ja-
=10	=10
8.ee-	-loux
16dd	de
2dd	moi,
=11	=11
4dd	C'est
4dd	no-
(8cc#	-tre
8dd)	|
=12	=12
4.ff	sort
8cc	o^
8a	mon
(16cc	a-
16b-)	|
=13	=13
(2a	-man-
4g)	|
=14	=14
2f}	-te!}
4r	.
=15	=15
2.r	.
=16	=16
{4cc	{Sau-
8cc	-ras
8cc	tu,
8.cc	pour
16bn	moi
=17	=17
(4cc	seul
4g)	|
(8b-	ai-
8a-)	|
=18	=18
(2g	-man-
8.ee-	|
16dd)	|
=19	=19
2cc}	-te,}
4r	.
=20	=20
{4ee-	{Les
8dd	plus
8cc	fiers
8b-	au-
8a	-bis-
=21	=21
8.g	-sant
16f#	ta
2f#	loi,
=22	=22
4ee-	N'e^-
8d	-tre
8c	sen-
8b-	-si-
8a	-ble
=23	=23
8.g	qu'a\
16f#	ma
4f#	foi?
4fn	Je
=24	=24
2ff	trem-
8ee-	-ble a\
8dd	te
=25	=25
(8cc	voir
8ee-)	|
4g	si
4a	char-
=26	=26
(8b-	-man-
8dd)	|
2f}	-te,}
=27	=27
4r	.
4r	.
{(4dd	{Je
=28	=28
2gg)	trem-
8ff	-ble a\
8ee-	te
=29	=29
(8dd	voir
8ee-)	|
4g	si
4cc	char-
=30	=30
(2f	-man-
8dd	|
8cc)	|
=31	=31
2.b-}	-te!}
*-	*-
